X:1
T:Title
%%score { ( 1 4 ) | ( 2 3 ) }
L:1/8
M:6/4
K:G
V:1 treble nm="Grand Piano"
V:4 treble 
V:2 bass 
V:3 bass 
V:1
 z6 z4[Q:1/4=156] D2 | [B,DG]2 [B,DG]2 [B,DG]2 [B,DG]3 [G,B,D] [B,DG]2 | B2 d2 c2 B4 B2 | %3
 [Ec]2 [CE]2 [Ec]2 [DB]2 [B,D]2 [DB]2 | [^CA]2 [CE]2 [CB]2 [DA]4 [=CD]2 | %5
 [B,DG]2 [B,DG]2 [B,DG]2 [B,DG]3 [G,B,D] [B,DG]2 | B2 d2 c2 B4 [DGB]2 | %7
 [^CGB]2 [CGA]2 [CG^c]2 [FB]2 [FA]2 d2 |[M:5/4] ^c2 B2 A2 [Fd]4 |[M:1/4] Bc | %10
[M:6/4] d2 d2 d2 d4 ed |[M:5/4] B2 B2 B2 z4 |[M:1/4] [Dd]2 |[M:6/4] [FA]2 [FA]2 [Fd]2 G2 G2 B2 | %14
[M:5/4] E2 F2 G2 A4 |[M:1/4] Bc |[M:6/4] d2 d2 d2 d4 ed |[M:5/4] B2 B2 B2 z4 |[M:1/4] B2 | %19
[M:25/16] [EA]2 [Ge]3 [Ge] [DGd]2 [DGd]2 z/ [Ec][Ec] |[M:5/4] B2 B2 A2 [B,DG]4 |] %21
V:2
 z6 z4 D,2 | G,,2 G,,2 G,,2 G,,3 G,, G,,2 | [G,D]2 [G,B,D]2 [G,A,D]2 [G,D]4 [G,=F]2 | %3
 [C,G,]2 [C,G,]2 [C,G,]2 [G,,G,]2 [G,,G,]2 [G,,G,]2 | [A,,G,]2 [A,,G,]2 [A,,G,]2 [D,F,]4 D,2 | %5
 G,,2 G,,2 G,,2 G,,3 G,, G,,2 | [G,D]2 [G,B,D]2 [G,A,D]2 [G,D]4 G,,2 | %7
 A,,2 A,,2 A,,2 [D,D]2 [D,D]2 [F,A,D]2 |[M:5/4][K:treble] [A,E]2 [A,^CG]2 [A,G]2[K:bass] [D,A,]4 | %9
[M:1/4] [G,D][K:treble][G,A,D] |[M:6/4] z6 z4 [G,G]2 | %11
[M:5/4] .[G,D]2 .[G,D]2 .[G,DF]2[K:bass] [G,D]4 |[M:1/4] [B,,G,]2 | %13
[M:6/4] [D,C]2 [D,C]2 [D,C]2 [E,B,E]2 [E,B,E]2 [E,G,E]2 | %14
[M:5/4] [G,A,^C]2 [F,A,C]2 [E,A,C]2 [D,F,D]4 |[M:1/4][K:treble] [G,D][G,A,D] | %16
[M:6/4] z6 z4 [G,G]2 |[M:5/4] .[G,D]2 .[G,D]2 .[G,DF]2[K:bass] [G,D]4 |[M:1/4] E z | %19
[M:25/16] [C,G,]2 [C,C]3 [C,C] B,,2 [B,,G,]2 z/ [C,G,][C,G,] | %20
[M:5/4] [D,G,D]2 [D,G,D]2 [D,CD]2 G,,4 |] %21
V:3
 x12 | x12 | x12 | x12 | x12 | x12 | x12 | x12 |[M:5/4][K:treble] x6[K:bass] x4 | %9
[M:1/4] x[K:treble] x |[M:6/4] [G,B,G]2 [G,B,G]2 [G,B,G]2 [G,B,G]4 CB, |[M:5/4] x6[K:bass] x4 | %12
[M:1/4] x2 |[M:6/4] x12 |[M:5/4] x10 |[M:1/4][K:treble] x2 | %16
[M:6/4] [G,B,G]2 [G,B,G]2 [G,B,G]2 [G,B,G]4 CB, |[M:5/4] x6[K:bass] x4 |[M:1/4] G,2 | %19
[M:25/16] x25/2 |[M:5/4] x10 |] %21
V:4
 x12 | x12 | x12 | x12 | x12 | x12 | x12 | x12 |[M:5/4] x10 |[M:1/4] x2 |[M:6/4] x12 | %11
[M:5/4] z ^C z G z E B4 |[M:1/4] x2 |[M:6/4] x12 |[M:5/4] x10 |[M:1/4] x2 |[M:6/4] x12 | %17
[M:5/4] z ^C z G z E B4 |[M:1/4] z =F |[M:25/16] x25/2 |[M:5/4] x10 |] %21

